pix_core/t/grades.svg

<!DOCTYPE svg PUBLIC "-//W3C//DTD SVG 1.1//EN" "http://www.w3.org/Graphics/SVG/1.1/DTD/svg11.dtd" [
	<!ENTITY ns_flows "http://ns.adobe.com/Flows/1.0/">
]><svg xmlns="http://www.w3.org/2000/svg" width="12" height="12" viewBox="0 0 12 12" preserveAspectRatio="xMinYMid meet" overflow="visible"><path d="M11 0h-10c-.5 0-1 .5-1 1v10c0 .5.5 1 1 1h10c.5 0 1-.5 1-1v-10c0-.5-.5-1-1-1zm-4 3h1v1h-1v-1zm0 2h1v1h-1v-1zm-1 5h-4v-1h4v1zm0-2h-4v-1h4v1zm0-2h-4v-1h4v1zm0-2h-4v-1h4v1zm1 3h1v1h-1v-1zm1 3h-1v-1h1v1zm2 0h-1v-1h1v1zm0-2h-1v-1h1v1zm0-2h-1v-1h1v1zm0-2h-1v-1h1v1z" fill="#1F4D87"/></svg>

<?xml version="1.0" encoding="utf-8"?>
<!-- Generator: Adobe Illustrator 15.1.0, SVG Export Plug-In  -->
<!DOCTYPE svg PUBLIC "-//W3C//DTD SVG 1.1//EN" "http://www.w3.org/Graphics/SVG/1.1/DTD/svg11.dtd" [
	<!ENTITY ns_flows "http://ns.adobe.com/Flows/1.0/">
]>
<svg version="1.1"
	 xmlns="http://www.w3.org/2000/svg" xmlns:xlink="http://www.w3.org/1999/xlink" xmlns:a="http://ns.adobe.com/AdobeSVGViewerExtensions/3.0/"
	 x="0px" y="0px" width="12px" height="12px" viewBox="0 0 12 12" style="overflow:visible;enable-background:new 0 0 12 12;"
	 xml:space="preserve" preserveAspectRatio="xMinYMid meet">
<defs>
</defs>
<path style="fill:#1F4D87;" d="M11,0H1C0.5,0,0,0.5,0,1v10c0,0.5,0.5,1,1,1h10c0.5,0,1-0.5,1-1V1C12,0.5,11.5,0,11,0z M7,3h1v1H7V3z
	 M7,5h1v1H7V5z M6,10H2V9h4V10z M6,8H2V7h4V8z M6,6H2V5h4V6z M6,4H2V3h4V4z M7,7h1v1H7V7z M8,10H7V9h1V10z M10,10H9V9h1V10z M10,8H9
	V7h1V8z M10,6H9V5h1V6z M10,4H9V3h1V4z"/>
</svg>
